X:1
T:Title
T:Violin Sonata No. 9, Op.47 - "Kreutzer" 1st Movement - as heard in "Your Lie in April" Ep. 2 
T:Ludwig van Beethoven Transcribed by alliebaster Performed by Yuna Shinohara and Eriko Kawachi 
C:Composer
%%score ( 1 2 ) { ( 3 5 ) | ( 4 6 ) }
L:1/8
Q:1/4=55
M:3/4
K:A
V:1 treble nm="Violin" snm="Vln."
V:2 treble 
V:3 treble nm="Piano" snm="Pno."
V:5 treble 
V:4 bass 
V:6 bass 
V:1
"^Adagio sostenuto" ([A,Eca]2 [df]2 [Bd]2) | ([GB]2 [Ee]3 [DG]) | [CA]2 [B,Fd]2 [B,Gd]2 | (d2 c4) | %4
 z6 |:[K:C][M:4/4][Q:1/4=270]"^Presto" (e2 | f6) .A2 | .^G2 .E2 .E2 .G2 | .A2 .E2 .E2 .A2 | %9
 .B2 .E2 .E2 .B2 |"_cresc." .c2 .A2 .A2 .c2 | .c2 .A2 .A2 .c2 |"_rallent."[Q:1/4=210] d8 | %13
 [G,DBg]8 |[Q:1/4=100]!>(! [CGce]6[Q:1/4=270] z2!>)! | z8 | z8 | z4 z2 .A2 | .^G2 .E2 .E2 .G2 | %19
"_cresc." .A2 .E2 .E2 .A2 | .A2 .E2 .E2 .A2 |"_rallent."[Q:1/4=200] B2 z2 z4 | [G,DB]2 z2 z4 | %23
[Q:1/4=150] [G,Ec]2!ff! z2 z4 z8 z2 | z4 z2!p![Q:1/4=270] (D2[Q:1/4=80] | d6 A2) | B2 z2 z2!f! BB | %27
 ^FFGG AAFF | B2 z2 z2!p! (B2 | b6 ^f2) | g2 z2 z2!f! GG | ^DDEE ^FFDD | G2 z2 z2 gg | %33
 ^ddee ^ffdd | ggaa bbgg | ^ddee ^ffdd | g2 z2 e'4- | e'2 z2 e'4- | e'2 z2 e'4- | %39
 e'2 .c'2 .b2 .a2 | ggaa bbgg | aabb c'c'aa | bbc'c' d'd'e'e' | =f'f'd'd' bbd'd' | %44
 f'f'd'd' bbd'd' | f'f'd'd' c'c'bb- | b z z2 z4 | z4 e'e'e'e' | a'a'a'a' =g'g'^f'f' | %49
 a'a'^f'f' e'e'^d'd' | e'e'c'c' bb^aa | bb^aa bbbb | e4 z4 | z8 | z8 | z8 | z8 | %57
 z4"^pizz."!f! [A,EAg]2 z2 | z4 [DA=f]2 z2 | z4 [G,DBg]2 z2 | [CEce]2 z2 z4 | z4 [EAa]2 z2 | %62
 z4 [EBb]2 z2 | z4 [^DBb]2 z"^arco" (^d | e4- e2) z (^d | e4- e2) z (^d | e4- e2) z (^f | %67
 .g2) z (^a .b2) z (^d' | e'8) | (d'2 ^c'2) .b2 .c'2 | d'4 a4 | !trill(!Tb8 | c'8 | %73
 (b2 a2) .^g2 .a2 | !>!b4 e4 | ^f4 B4 | (b8- | b2 a2) .=g2 .a2 | b4 e4 | ^f4 B4 | %80
 be'e'e' e'e'e'e' | e'e'e'e' e'e'e'e' | e'e'g'g' e'e'g'g' | ^d'd'^f'f' d'd'd'd' | e'2 z2 z4 | %85
 .[EBe]2 z2 z4 | Aa^ga ^faea | ^dacd BdAd | G2 z2 z4 | [EBe]2 z2 z4 | Aa^ga ^faea | ^dacd BdAd | %92
 (Ge).E.^F .A.G.F.E | (^D^F).B,.D .F.B.A.F | (Ge).E.^F .A.G.F.E | (^D^F).B,.D .F.B.A.F | %96
 (Ge).E.G B,GeG | B,^F^dF B,FdF |[Q:1/4=180]"^cresc." [B,E=d-]8 | !fermata!d8 |!pp!!>(! c8- | %101
 c6!>)! z2 | z8 | z4 z2[Q:1/4=270]!f! !^!A2 | !>!^G.^F.E.F .G.A.B.c | dcB=f edcB | !^!c3 z z4 | %107
 z4 z2 !^!A2 | !>!^G.^F.E.F .G.A.B.c | dcB=f edcB | !^!c3 z z4 | z4 z2 !^!A2 | %112
 !>!^G.^F.E.F .G.A.B.c | dcB=f edcB | cA=GF EFED | CFED CDCB, | A,2 z2 z4 | %117
!ff! [Eca]2 z2 [Eca]2 z2 | [Eca]2 z2 z4 | [EBe]2 z2 z4 | [A,EA]2 z2 z4 |] %121
V:2
 x6 | x6 | x6 | [A,E]3 x3 | x6 |:[K:C][M:4/4] x2 | x8 | x8 | x8 | x8 | x8 | x8 | x8 | x8 | x8 | %15
 x8 | x8 | x8 | x8 | x8 | x8 | x8 | x8 | x18 | x8 | x8 | x8 | x8 | x8 | x8 | x8 | x8 | x8 | x8 | %34
 x8 | x8 | x8 | x8 | x8 | x8 | x8 | x8 | x8 | x8 | x8 | x8 | x8 | x8 | x8 | x8 | x8 | x8 | x8 | %53
 x8 | x8 | x8 | x8 | x8 | x8 | x8 | x8 | x8 | x8 | x8 | x8 | x8 | x8 | x8 | x8 | x8 | x8 | x8 | %72
 x8 | x8 | x8 | x8 | x8 | x8 | x8 | x8 | x8 | x8 | x8 | x8 | x8 | x8 | x8 | x8 | x8 | x8 | x8 | %91
 x8 | x8 | x8 | x8 | x8 | x8 | x8 | x8 | x8 | x8 | x8 | x8 | x8 | x8 | x8 | x8 | x8 | x8 | x8 | %110
 x8 | x8 | x8 | x8 | x8 | x8 | x8 | x8 | x8 | x8 | x8 |] %121
V:3
 z6 | z6 | z6 | z6 | z6 |:[K:C][M:4/4] z2 | [A,DF]6 [A,D]2 | [^G,B,E]2 z2 z4 | [A,CE]2 z2 z4 | %9
 [^G,B,E]2 z2 z4 | [A,CE]2 z2 [A,CE]2 z2 | [A,CE]2 z2 [A,CE]2 z2 | [B,DG]2 z2 z4 | %13
 [G,B,DG]2 z2 z4 | !fermata![G,CE]6 (e2 | f6) .[DA]2 | .[E^G]2 .E2 .E2 .G2 | .A2 .E2 .E2 .A2 | %18
 .B2 .E2 .E2 .B2 |"_cresc." .c2 .A2 .A2 .c2 | .c2 .A2 .A2 .c2 | d8 | [FBdg]8 | %23
!ped![I:staff +1] C,,/C,/E,/G,/C/[I:staff -1] E/G/c/e/g/c'/e'/c'/g/e/c/G/e/c/G/E/[I:staff +1]C/G,/[I:staff -1]E/[I:staff +1]C/G,/E,/G,/[I:staff -1]E/G/c/e/g/c'/e'- | %24
 e'!ped-up! z z2 z4 | z8 | z4 z2!p! dd' | c'afd cA^FC | B,2!p! z2 z4 | z8 | z4 z2!p! db | %31
 a^f^dB A^F^DA, | G,B,EG Begb | a^f^dB A^F^DA, | G,B,EG Begb | a^f^dB A^F^DA, | G,GA,A B,BG,G | %37
 A,AB,B CcA,A | _B,BCc Dd=B,B | Cc^D^d Ee^F^f | [Gg]2 z2 [ee']4- | [ee']2 z2 [ee']4- | %42
 [ee']2 z2 [ee']4- | [ee']4 .[ee']2 .[ee']2 | z4 .[ee']2 .[ee']2 | %45
 .[ee']2 .[ee']2 .[ee']2 .[ee']2 | ff'dd' Bbdd' | ff'dd' Bbdd' | cc'Aa Gg^F^f | Aa^F^f Ee^D^d | %50
 EeCc B,B^A,^A | B,B^A,^A B,B^D(^d | e4-) e3 (([^D^d] | [Ee]4-)) [Ee]3 (([^D^d] | %54
 [Ee]4-)) [Ee]3 (([^F^f] | .[Gg]2)) z (([^A^a] .[Bb]2)) z (([^d^d'] | [ee']8)) | %57
 (([d=d']2 [^c^c']2)) .[Bb]2 .[cc']2 | [dd']4 [Aa]4 |{/B} Tb8 | [cc']8 | %61
 ([Bb]2 [Aa]2) .[^G^g]2 .[Aa]2 | .[Bb]4 .[Ee]4 | ^f4 B4 | [Ee][K:bass] B,EB, G,B,EB, | %65
 G,B,EB, G,B,EB, | G,B,EB, G,B,EB, | G,B,EB, G,B,EB, | G,B,EB, G,B,EB, | G,A,EA, G,A,EA, | %70
 G,A,DA, G,A,DA, | F,G,DG, F,G,DG, | F,G,CG, E,G,CE | ^F,CEC F,CEC | ^F,B,^DB, F,B,EB, | %75
 B,B,EB, ^F,B,^DB, |[K:treble] G,B,EG G,B,EG | A,EAE A,EAE | B,EGE B,EGE | B,E^FE B,^DFD | %80
!mf!"_dim." B,BBb BbBb | BbAa GgAa |!mf! BbBb DeEe | ^F^fFf B,BB,B | Ee^de Ee^Fe | Ge^Fe GeEe | %86
 .[B,^D^FB]2 z2 z4 | .[B^d^fb]2 z2 z4 | Ee^de Ee^Fe | Ge^Fe GeEe | .[B,^D^FB]2 z2 z4 | %91
 .[B^d^fb]2 z2 z4 | .[EGBe]2 z2 z4 | .[B^d^fb]2 z2 z4 | .[EGBe]2 z2 z4 | .[B^d^fb]2 z2 z4 | %96
 .[EGBe]2 z2 z4 | .[B^d^fb]2 z2 .[Bdfb]2 z2 | .[eb=d'e']8- | .[ebd'e']8 | z8 | z8 | z8 | z8 | %104
!mf! .[B,E^GB]2 z2 z4 | .[e^gbe']2 z2 z4 | .[ceac'] B,CD E^F^GE | A=G=FE DCB,A, | %108
 .[B,E^GB]2 z2 z4 | .[e^gbe']2 z2 z4 | .[ceac'] B,CD E^F^GE | A=G=FE DCB,A, | .[B,E^GB]2 z2 z4 | %113
 .[e^gbe']2 z2 z4 |"_cresc." .[ceac'] a=gf efed | cfed cdcB | AFED CDCB, | A,FED CDCB, | %118
 A,2 z2 z4 | .[^GBde^f]2 z2 z4 | .[Acea]2 z2 z4 |] %121
V:4
 z6 | z6 | z6 | z6 | z6 |:[K:C][M:4/4] z2 | [D,,D,]6 [F,,F,]2 | [E,,E,]2 z2 z4 | A,,2 z2 z4 | %9
 [E,,E,]2 z2 z4 | [A,,,A,,]2 z2 [A,,,A,,]2 z2 | [A,,,A,,]2 z2 [A,,,A,,]2 z2 | [G,,,G,,]2 z2 z4 | %13
 [G,,,G,,]2 z2 z4 | !fermata![C,,G,,C,]6 z2 | [D,A,D]6 .[F,A,]2 | [E,B,]2 z2 z4 | %17
 [A,,C,E,A,]2 z2 z4 | [E,,^G,,B,,E,]2 z2 z4 | [A,,,C,,E,,A,,]2 z2 z4 | %20
 [A,,,A,,]2 z2 [A,,,A,,]2 z2 | [G,,,G,,]2 z2 z4 | [G,,B,,D,G,]8 | z8 z8 z z | z C,,4 z z2 | %25
!pp! D,,D,E,,D, ^F,,D,D,,D, | G,,D,A,,D, B,,D,G,,D, | D,,D,E,,D, ^F,,D,D,,D, | %28
 G,,B,,^F,,B,, G,,B,,E,,B,, | B,,,B,,^C,,B,, ^D,,B,,B,,,B,, | E,,B,,^F,,B,, G,,B,,E,,B,, | %31
 B,,,B,,^C,,B,, ^D,,B,,B,,,B,, | E,,B,,^F,,B,, G,,B,,E,,B,, | B,,,B,,^C,,B,, ^D,,B,,B,,,B,, | %34
 E,,B,,^F,,B,, G,,B,,E,,B,, | B,,,B,,^C,,B,, ^D,,B,,B,,,B,, | E,,C,^F,,C, G,,C,E,,C, | %37
 ^F,,D,G,,D, A,,D,F,,D, | ^G,,E,A,,E, B,,E,G,,E, | A,,E,B,,E, C,E,^D,E, | E,E^F,E G,EE,E | %41
 ^F,EG,E A,EF,E | ^G,EA,E B,ECE | DEB,E ^G,EB,E | DEB,E ^G,EB,E | DEB,E ^G,EB,E | DEB,E ^G,EB,E | %47
 DEB,E ^G,EB,E | C,CA,,C =G,,=G,^F,,^F, | A,,A,^F,,^F, E,,E,D,,^D, | E,,E,C,,C, B,,,B,,^A,,,^A,, | %51
 B,,,B,,^A,,,^A,, B,,,B,, [B,,,B,,]2 | [E,,E,]2 [G,B,]2 [G,B,]2 [G,B,]2 | %53
 [E,,E,]2 [G,B,]2 [G,B,]2 [G,B,]2 | [E,,E,]2 [G,B,]2 [G,B,]2 [G,B,]2 | .E,2 [G,B,]2 E,2 [G,B,]2 | %56
 .E,2 [EG]2 B,2 [EG]2 | .A,,2 [EG]2 A,2 [EG]2 | .A,,2 [EG]2 A,2 [EG]2 | .D,2 [D=F]2 G,2 [DF]2 | %60
 .C,2 [CE]2 G,2 [CE]2 | .C,2 [CE]2 G,2 [CE]2 | C,2 B,2 G,2 E,2 | B,,2 A,,2 G,,2 ^F,,2 | %64
 E,,2 z (^D,, E,,4-) | E,,3 (^D,, E,,4-) | E,,3 (^D,, E,,3) (^F,, | .G,,2) z (^A,, .B,,2) z (^D, | %68
 E,8) | (D,2 ^C,2) .B,,2 .C,2 | .D,4 .A,,4 | B,,8 | [C,,C,]8 | %73
 ([B,,,B,,]2 [A,,,A,,]2) .[^G,,,^G,,]2 .[A,,,A,,]2 | .[B,,,B,,]4 .E,,4 | ^F,,4 B,,,2 A,,,2 | %76
 G,,,2 G,,2 G,,2 G,,2 | C,,2 C,2 C,2 C,2 | B,,,2 B,,2 B,,2 B,,2 | A,,,2 A,,2 A,,2 A,,2 | %80
!mf! G,,,G,,G,,G, G,,G,G,,G, | C,,C,C,C C,CC,C | B,,B,G,E, B,,G,,E,,G,, | %83
 B,,,B,,A,,,A,, G,,,G,,^F,,,^F,, | E,,E,^D,E, E,,E,^F,,E, | G,,E,^F,,E, G,,E,E,,E, | %86
 .[B,,,^D,,^F,,B,,]2 z2 z4 | .[B,,^D,^F,B,]2 z2 z4 | E,,E,^D,E, E,,E,^F,,E, | %89
 G,,E,^F,,E, G,,E,E,,E, | .[B,,,^D,,^F,,B,,]2 z2 z4 | .[B,,^D,^F,B,]2 z2 z4 | %92
 .[E,,G,,B,,E,]2 z2 z4 | .[B,,^D,^F,B,]2 z2 z4 | .[E,,G,,B,,E,]2 z2 z4 | .[B,,^D,^F,B,]2 z2 z4 | %96
 .[E,,G,,B,,E,]2 z2 z4 | .[B,,,B,,]2 z2 .[A,,,A,,]2 z2 | .[^G,,,^G,,]8- | .[G,,,G,,]8 | z8 | z8 | %102
 z8 | z8 | .[E,,^G,,B,,E,]2 z2 z4 | .[E,^G,B,E]2 z2 z4 | .[A,,C,E,A,] B,,C,D, E,^F,^G,E, | %107
 A,=G,=F,E, D,C,B,,A,, | .[E,,^G,,B,,E,]2 z2 z4 | .[E,^G,B,E]2 z2 z4 | %110
 .[A,,C,E,A,] B,,C,D, E,^F,^G,E, | A,=G,=F,E, D,C,B,,A,, | .[E,,^G,,B,,E,]2 z2 z4 | %113
 .[E,^G,B,E]2 z2 z4 | .[A,,C,E,A,] A,=G,F, E,F,E,D, | C,F,E,D, C,D,C,B,, | %116
 A,,F,,E,,D,, C,,D,,C,,B,,, | A,,,F,,E,,D,, C,,D,,C,,B,,, | A,,,2 z2 z4 | .[E,,^G,,B,,E,]2 z2 z4 | %120
 .[A,,,C,,E,,A,,]2 z2 z4 |] %121
V:5
 x6 | x6 | x6 | x6 | x6 |:[K:C][M:4/4] x2 | x8 | x8 | x8 | x8 | x8 | x8 | x8 | x8 | x8 | x8 | x8 | %17
 x8 | x8 | x8 | x8 | x8 | x8 | x18 | x8 | x8 | x8 | x8 | x8 | x8 | x8 | x8 | x8 | x8 | x8 | x8 | %36
 x8 | x8 | x8 | x8 | x8 | x8 | x8 | x8 | x8 | x8 | x8 | x8 | x8 | x8 | x8 | x6 (^D2 | E4-) E3 x | %53
 x8 | x8 | x8 | x8 | x8 | x8 | x8 | x8 | x8 | x8 | x8 | x[K:bass] x7 | x8 | x8 | x8 | x8 | x8 | %70
 x8 | x8 | x8 | x8 | x8 | x8 |[K:treble] x8 | x8 | x8 | x8 | x8 | x8 | x8 | x8 | x8 | x8 | x8 | %87
 x8 | x8 | x8 | x8 | x8 | x8 | x8 | x8 | x8 | x8 | x8 | x8 | x8 | x8 | x8 | x8 | x8 | x8 | x8 | %106
 x8 | x8 | x8 | x8 | x8 | x8 | x8 | x8 | x8 | x8 | x8 | x8 | x8 | x8 | x8 |] %121
V:6
 x6 | x6 | x6 | x6 | x6 |:[K:C][M:4/4] x2 | x8 | x8 | x8 | x8 | x8 | x8 | x8 | x8 | x8 | x8 | x8 | %17
 x8 | x8 | x8 | x8 | x8 | x8 | x18 | x8 | x8 | x8 | x8 | x8 | x8 | x8 | x8 | x8 | x8 | x8 | x8 | %36
 x8 | x8 | x8 | x8 | x8 | x8 | x8 | x8 | x8 | x8 | x8 | x8 | x8 | x8 | x8 | x8 | x8 | x8 | x8 | %55
 x8 | x8 | x8 | x8 | x8 | x8 | x8 | x8 | x8 | x8 | x8 | x8 | x8 | x8 | A,,8 | D,,2 z2 z4 | x8 | %72
 x8 | x8 | x8 | x8 | x8 | x8 | x8 | x8 | x8 | x8 | x8 | x8 | x8 | x8 | x8 | x8 | x8 | x8 | x8 | %91
 x8 | x8 | x8 | x8 | x8 | x8 | x8 | x8 | x8 | x8 | x8 | x8 | x8 | x8 | x8 | x8 | x8 | x8 | x8 | %110
 x8 | x8 | x8 | x8 | x8 | x8 | x8 | x8 | x8 | x8 | x8 |] %121

